material/.icons/material/gate-arrow-right.svg

<svg xmlns="http://www.w3.org/2000/svg" viewBox="0 0 24 24"><path d="M15 5v5h-2V6h-2v4H9V8H7v12h2v-2h2v2h1.09a6 6 0 01-.09-1 6 6 0 011-3.31V12h2v1.81a6 6 0 012-.72V12h2v1.09a6 6 0 012 .72V12h1v-2h-1V5h-2v5h-2V5h-2m-6 7h2v4H9v-4m10 4v2h-4v2h4v2l3-3-3-3z"/></svg>

<?xml version="1.0" encoding="UTF-8"?><!DOCTYPE svg PUBLIC "-//W3C//DTD SVG 1.1//EN" "http://www.w3.org/Graphics/SVG/1.1/DTD/svg11.dtd"><svg xmlns="http://www.w3.org/2000/svg" xmlns:xlink="http://www.w3.org/1999/xlink" version="1.1" id="mdi-gate-arrow-right" width="24" height="24" viewBox="0 0 24 24"><path d="M15 5V10H13V6H11V10H9V8H7V20H9V18H11V20H12.09A6 6 0 0 1 12 19A6 6 0 0 1 13 15.69V12H15V13.81A6 6 0 0 1 17 13.09V12H19V13.09A6 6 0 0 1 21 13.81V12H22V10H21V5H19V10H17V5H15M9 12H11V16H9V12M19 16V18H15V20H19V22L22 19L19 16Z" /></svg>
